app/assets/fonts/icomoon.svg

<?xml version="1.0" standalone="no"?>
<!DOCTYPE svg PUBLIC "-//W3C//DTD SVG 1.1//EN" "http://www.w3.org/Graphics/SVG/1.1/DTD/svg11.dtd" >
<svg xmlns="http://www.w3.org/2000/svg">
<metadata>Generated by IcoMoon</metadata>
<defs>
<font id="icomoon" horiz-adv-x="512">
<font-face units-per-em="512" ascent="480" descent="-32" />
<missing-glyph horiz-adv-x="512" />
<glyph unicode="&#x20;" d="" horiz-adv-x="256" />
<glyph unicode="&#xe000;" d="M-2.998 469.661h668v-54.491h-668zM-2.998 380.866h668v-54.499h-668zM-2.998 294.086h668v-54.482h-668zM-2.998 206.106h668v-54.491h-668zM-2.998 120.513h668v-54.491h-668zM-2.998 31.739h668v-54.491h-668z" horiz-adv-x="662" />
<glyph unicode="&#xe001;" d="M464.457 340.815c0 73.68-59.743 133.415-133.423 133.415-73.689 0-133.423-59.734-133.423-133.415 0-27.84 8.543-53.676 23.13-75.073l110.292-292.743 113.395 297.49h-0.162c12.725 20.426 20.191 44.476 20.191 70.326zM332.023 412.101c39.391 0 71.329-31.902 71.329-71.292 0-39.391-31.931-71.315-71.329-71.315-39.376 0-71.315 31.917-71.315 71.315 0 39.382 31.945 71.292 71.315 71.292z" horiz-adv-x="662" />
<glyph unicode="&#xe002;" d="M575.277 466.926l-0.094-189.17-63.326 63.333-122.7-122.672-65.175 65.175 122.7 122.672-61.794 61.772 190.389-1.11zM135.851 467.983h171.179l48.903-48.903-219.074-0.964-0.374-390.641 391.677 0.202-0.863 220.29 46.932-47.629 1.827-172.56c0-27.012-21.919-48.903-48.903-48.903h-391.288c-27.012 0-48.903 21.891-48.903 48.903v391.303c-0.030 26.997 21.874 48.902 48.887 48.902z" horiz-adv-x="662" />
<glyph unicode="&#xe003;" d="M54.386 76.198h554.228v-45.21h-554.228zM54.386 317.404h45.21v-212.753h-45.21zM127.347 392.215h45.204v-287.58h-45.204zM199.414 248.433h45.21v-143.798h-45.21zM271.48 271.408h45.203v-166.773h-45.203zM345.461 364.764h45.203v-260.129h-45.203zM486.586 392.215h45.203v-287.58h-45.203zM417.324 465.031h45.202v-360.396h-45.202zM563.404 221.333h45.21v-116.698h-45.21zM172.551 30.988h23.864v-49.251h-23.864zM319.576 30.988h23.848v-49.251h-23.848zM462.534 30.988h23.864v-49.251h-23.864z" horiz-adv-x="662" />
<glyph unicode="&#xe004;" d="M26.764 269.203v173.255l305.508-264.123 302.965 261.868v-173.273l-303.788-262.647z" horiz-adv-x="662" />
<glyph unicode="&#xe005;" d="M207.193 471.962l248.343-248.401-248.343-248.331v496.732z" horiz-adv-x="662" />
<glyph unicode="&#xe006;" d="M455.765-24.77l-248.343 248.331 248.343 248.401v-496.732z" horiz-adv-x="662" />
<glyph unicode="&#xe007;" d="M636.135 376.217l-305.301-305.245-305.209 305.245h610.51z" horiz-adv-x="662" />
<glyph unicode="&#xe008;" d="M85.692 468.685v-490.996h491.009l-0.005 490.996h-491.004zM444.721 281.421c0.115-2.506 0.159-5.061 0.159-7.589 0-77.42-58.913-166.663-166.641-166.663-33.093 0-63.881 9.705-89.797 26.334 4.578-0.571 9.257-0.845 13.972-0.845 27.439 0 52.697 9.387 72.748 25.106-25.619 0.455-47.26 17.395-54.725 40.645 3.581-0.664 7.257-1.040 11.019-1.040 5.343 0 10.514 0.708 15.438 2.058-26.803 5.387-46.985 29.056-46.985 57.426 0 0.26 0 0.491 0.014 0.758 7.885-4.383 16.925-7.018 26.529-7.336-15.726 10.492-26.045 28.464-26.045 48.761 0 10.737 2.881 20.795 7.921 29.446 28.883-35.439 72.048-58.755 120.73-61.202-0.996 4.282-1.509 8.752-1.509 13.344 0 32.363 26.218 58.589 58.567 58.589 16.832 0 32.067-7.119 42.739-18.492 13.358 2.621 25.872 7.481 37.23 14.203-4.383-13.676-13.698-25.157-25.771-32.407 11.864 1.408 23.142 4.564 33.634 9.213-7.853-11.745-17.796-22.034-29.227-30.309z" horiz-adv-x="662" />
<glyph unicode="&#xe009;" d="M85.413 468.689v-491.006h491.006l-0.002 491.006h-491.004zM197.505 45.499c-26.709 0-48.407 21.503-48.407 48.212 0 26.55 21.698 48.335 48.407 48.335 26.825 0 48.473-21.778 48.473-48.335 0.001-26.708-21.706-48.212-48.473-48.212zM319.152 45.066c0 45.548-17.727 88.439-49.823 120.477-32.125 32.168-74.806 49.909-120.181 49.909v69.694c132.298 0 240.008-107.697 240.008-240.088l-70.004-0.006zM442.822 45.066c0 162.040-131.741 293.918-293.578 293.918v69.723c200.403 0 363.497-163.187 363.497-363.634l-69.919 0.001z" horiz-adv-x="662" />
<glyph unicode="&#xe00a;" d="M548.455 55.541l-101.438 101.445c-4.84 4.833-12.744 4.761-17.669-0.164l-4.564-4.564-17.223 17.223c24.814 29.365 39.843 67.233 39.843 108.589 0 92.933-75.611 168.536-168.536 168.536-92.933 0-168.543-75.611-168.543-168.536s75.611-168.536 168.543-168.536c39.26 0 75.349 13.615 104.031 36.207l17.682-17.682-4.087-4.080c-4.931-4.931-5.016-12.836-0.177-17.669l101.445-101.445c4.833-4.833 12.737-4.761 17.682 0.164l32.842 32.842c4.937 4.919 5.002 12.83 0.169 17.67zM141.974 278.053c0 75.485 61.408 136.889 136.9 136.889s136.889-61.408 136.889-136.889c0-75.485-61.408-136.889-136.889-136.889s-136.9 61.401-136.9 136.889z" horiz-adv-x="662" />
<glyph unicode="&#xe00b;" d="M288.117 335.365l121.356 40.716 101.792-303.392-121.356-40.716zM0 32h128v352h-128v-352zM32 320h64v-32h-64v32zM160 32h128v352h-128v-352zM192 320h64v-32h-64v32z" />
<glyph unicode="&#xe00c;" d="M85.761 469.526v-491.006h109.914v198.013h-49.505v68.25l49.505 0.022-0.079 40.212c0 55.672 15.091 89.544 80.669 89.544h54.596v-68.25h-34.111c-25.54 0-26.767-9.531-26.767-27.338l-0.101-34.161h61.376l-7.235-68.236-54.097-0.036-0.044-198.013h306.872l-0.001 490.999h-490.992z" horiz-adv-x="662" />
<glyph unicode="&#xe00d;" d="M26.169 70.541l305.204 305.246 305.303-305.246h-610.507z" horiz-adv-x="662" />
<glyph unicode="&#xe00e;" d="M27.059 177.814v-173.265l305.517 264.134 302.959-261.87v173.28l-303.792 262.65z" horiz-adv-x="662" />
<glyph unicode="&#xe00f;" d="M293.822 470.73h-140.851l214.74-248.382-212.914-246.314h140.877l213.535 246.997z" horiz-adv-x="662" />
<glyph unicode="&#xe010;" d="M368.709 470.996h140.844l-214.743-248.388 212.91-246.31h-140.871l-213.543 246.987z" horiz-adv-x="662" />
<glyph unicode="&#xe011;" d="M384 448h-64c-52.935 0-96-43.065-96-96v-96h-200c-13.2 0-24-10.8-24-24v-240c0-13.2 10.8-24 24-24h272c13.2 0 24 10.8 24 24v240c0 13.2-10.8 24-24 24h-8v96c0 17.645 14.355 32 32 32h64c17.645 0 32-14.355 32-32v-96h64v96c0 52.935-43.065 96-96 96zM192 32h-64l13.92 69.6c-8.404 5.766-13.92 15.437-13.92 26.4 0 17.673 14.327 32 32 32 17.673 0 32-14.327 32-32 0-10.963-5.516-20.634-13.92-26.4l13.92-69.6z" />
<glyph unicode="&#xe012;" d="M296 256h-8v96c0 52.935-43.065 96-96 96h-64c-52.935 0-96-43.065-96-96v-96h-8c-13.2 0-24-10.8-24-24v-240c0-13.2 10.8-24 24-24h272c13.2 0 24 10.8 24 24v240c0 13.2-10.8 24-24 24zM192 32h-64l13.92 69.6c-8.404 5.766-13.92 15.437-13.92 26.4 0 17.673 14.327 32 32 32 17.673 0 32-14.327 32-32 0-10.963-5.516-20.634-13.92-26.4l13.92-69.6zM224 256h-128v96c0 17.645 14.355 32 32 32h64c17.645 0 32-14.355 32-32v-96z" />
<glyph unicode="&#xe600;" d="M426.69 480h-341.346c-46.939 0-85.343-38.407-85.343-85.343v-341.313c0-46.969 38.404-85.344 85.343-85.344h341.346c46.935 0 85.31 38.375 85.31 85.344v341.314c-0.004 46.935-38.379 85.342-85.31 85.342zM365.858 67.656c-15.076-7.094-28.764-12.094-41-14.969-12.248-2.845-25.48-4.279-39.701-4.279-16.156 0-25.688 2.029-38.094 6.094-12.404 4.094-23 9.936-31.75 17.436-8.779 7.564-14.843 15.599-18.233 24.097-3.392 8.502-5.078 20.846-5.078 37.002v123.901h-47.998v50.033c13.872 4.5 29.968 10.967 39.842 19.375 9.92 8.436 17.859 18.529 23.842 30.342 6.002 11.783 10.125 26.813 12.376 45.033h50.25v-81.721h81.686v-63.063h-81.689v-90.594c0-20.5-0.264-32.313 1.908-38.125 2.156-5.78 7.563-11.78 13.451-15.25 7.828-4.688 16.752-7.030 26.813-7.030 17.893 0 35.689 5.813 53.375 17.438v-55.72z" />
</font></defs></svg>

<?xml version="1.0" standalone="no"?>
<!DOCTYPE svg PUBLIC "-//W3C//DTD SVG 1.1//EN" "http://www.w3.org/Graphics/SVG/1.1/DTD/svg11.dtd" >
<svg xmlns="http://www.w3.org/2000/svg">
<metadata>
This is a custom SVG font generated by IcoMoon.
<iconset grid="16"></iconset>
</metadata>
<defs>
<font id="icomoon" horiz-adv-x="512" >
<font-face units-per-em="512" ascent="480" descent="-32" />
<missing-glyph horiz-adv-x="512" />
<glyph class="hidden" unicode="&#xf000;" d="M0,480L 512 -32L0 -32 z" horiz-adv-x="0" />
<glyph unicode="&#xe000;" d="M -2.998,469.661L 665.002,469.661L 665.002,415.17L -2.998,415.17zM -2.998,380.866L 665.002,380.866L 665.002,326.367L -2.998,326.367zM -2.998,294.086L 665.002,294.086L 665.002,239.604L -2.998,239.604zM -2.998,206.106L 665.002,206.106L 665.002,151.615L -2.998,151.615zM -2.998,120.513L 665.002,120.513L 665.002,66.022L -2.998,66.022zM -2.998,31.739L 665.002,31.739L 665.002-22.752L -2.998-22.752z" horiz-adv-x="662"  />
<glyph unicode="&#xe001;" d="M 464.457,340.815c0,73.68-59.743,133.415-133.423,133.415c-73.689,0-133.423-59.734-133.423-133.415c0-27.84, 8.543-53.676, 23.13-75.073
	l 110.292-292.743l 113.395,297.49l-0.162,0C 456.991,290.915, 464.457,314.965, 464.457,340.815z M 332.023,412.101
	c 39.391,0, 71.329-31.902, 71.329-71.292c0-39.391-31.931-71.315-71.329-71.315c-39.376,0-71.315,31.917-71.315,71.315
	C 260.708,380.191, 292.653,412.101, 332.023,412.101z" horiz-adv-x="662"  />
<glyph unicode="&#xe002;" d="M 575.277,466.926l-0.094-189.17l-63.326,63.333l-122.7-122.672l-65.175,65.175
	l 122.7,122.672l-61.794,61.772L 575.277,466.926zM 135.851,467.983l 171.179,0 l 48.903-48.903l-219.074-0.964l-0.374-390.641l 391.677,0.202
	l-0.863,220.29l 46.932-47.629l 1.827-172.56c0-27.012-21.919-48.903-48.903-48.903l-391.288,0 c-27.012,0-48.903,21.891-48.903,48.903l0,391.303 
	C 86.934,446.078, 108.838,467.983, 135.851,467.983z" horiz-adv-x="662"  />
<glyph unicode="&#xe003;" d="M 54.386,76.198L 608.614,76.198L 608.614,30.988L 54.386,30.988zM 54.386,317.404L 99.596,317.404L 99.596,104.651L 54.386,104.651zM 127.347,392.215L 172.551,392.215L 172.551,104.635L 127.347,104.635zM 199.414,248.433L 244.624,248.433L 244.624,104.635L 199.414,104.635zM 271.48,271.408L 316.683,271.408L 316.683,104.635L 271.48,104.635zM 345.461,364.764L 390.664,364.764L 390.664,104.635L 345.461,104.635zM 486.586,392.215L 531.789,392.215L 531.789,104.635L 486.586,104.635zM 417.324,465.031L 462.526,465.031L 462.526,104.635L 417.324,104.635zM 563.404,221.333L 608.614,221.333L 608.614,104.635L 563.404,104.635zM 172.551,30.988L 196.415,30.988L 196.415-18.263L 172.551-18.263zM 319.576,30.988L 343.424,30.988L 343.424-18.263L 319.576-18.263zM 462.534,30.988L 486.398,30.988L 486.398-18.263L 462.534-18.263z" horiz-adv-x="662"  />
<glyph unicode="&#xe004;" d="M 26.764,269.203L 26.764,442.458L 330.608,179.802L 332.272,178.335L 635.237,440.203L 635.237,266.93L 331.449,4.283 
	z" horiz-adv-x="662"  />
<glyph unicode="&#xe005;" d="M 207.193,471.962l 248.343-248.401l-248.343-248.331L 207.193,471.962 z" horiz-adv-x="662"  />
<glyph unicode="&#xe006;" d="M 455.765-24.77l-248.343,248.331l 248.343,248.401L 455.765-24.77 z" horiz-adv-x="662"  />
<glyph unicode="&#xe007;" d="M 636.135,376.217l-305.301-305.245l-305.209,305.245L 636.135,376.217 z" horiz-adv-x="662"  />
<glyph unicode="&#xe008;" d="M 85.692,468.685l0-490.996 l 491.009,0 L 576.696,468.685 L 85.692,468.685 z M 444.721,281.421c 0.115-2.506, 0.159-5.061, 0.159-7.589
	c0-77.42-58.913-166.663-166.641-166.663c-33.093,0-63.881,9.705-89.797,26.334c 4.578-0.571, 9.257-0.845, 13.972-0.845
	c 27.439,0, 52.697,9.387, 72.748,25.106c-25.619,0.455-47.26,17.395-54.725,40.645c 3.581-0.664, 7.257-1.040, 11.019-1.040
	c 5.343,0, 10.514,0.708, 15.438,2.058c-26.803,5.387-46.985,29.056-46.985,57.426c0,0.26,0,0.491, 0.014,0.758
	c 7.885-4.383, 16.925-7.018, 26.529-7.336c-15.726,10.492-26.045,28.464-26.045,48.761c0,10.737, 2.881,20.795, 7.921,29.446
	c 28.883-35.439, 72.048-58.755, 120.73-61.202c-0.996,4.282-1.509,8.752-1.509,13.344c0,32.363, 26.218,58.589, 58.567,58.589
	c 16.832,0, 32.067-7.119, 42.739-18.492c 13.358,2.621, 25.872,7.481, 37.23,14.203c-4.383-13.676-13.698-25.157-25.771-32.407
	c 11.864,1.408, 23.142,4.564, 33.634,9.213C 466.095,299.985, 456.152,289.696, 444.721,281.421z" horiz-adv-x="662"  />
<glyph unicode="&#xe009;" d="M 85.413,468.689l0-491.006 l 491.006,0 L 576.417,468.689 L 85.413,468.689 z M 197.505,45.499c-26.709,0-48.407,21.503-48.407,48.212
	c0,26.55, 21.698,48.335, 48.407,48.335c 26.825,0, 48.473-21.778, 48.473-48.335C 245.979,67.003, 224.272,45.499, 197.505,45.499z M 319.152,45.066
	c0,45.548-17.727,88.439-49.823,120.477c-32.125,32.168-74.806,49.909-120.181,49.909l0,69.694 c 132.298,0, 240.008-107.697, 240.008-240.088L 319.152,45.052 z
	 M 442.822,45.066c0,162.040-131.741,293.918-293.578,293.918l0,69.723 c 200.403,0, 363.497-163.187, 363.497-363.634L 442.822,45.074 z" horiz-adv-x="662"  />
<glyph unicode="&#xe00a;" d="M 548.455,55.541l-101.438,101.445c-4.84,4.833-12.744,4.761-17.669-0.164l-4.564-4.564l-17.223,17.223
	c 24.814,29.365, 39.843,67.233, 39.843,108.589c0,92.933-75.611,168.536-168.536,168.536c-92.933,0-168.543-75.611-168.543-168.536
	s 75.611-168.536, 168.543-168.536c 39.26,0, 75.349,13.615, 104.031,36.207l 17.682-17.682l-4.087-4.080c-4.931-4.931-5.016-12.836-0.177-17.669
	l 101.445-101.445c 4.833-4.833, 12.737-4.761, 17.682,0.164l 32.842,32.842C 553.223,42.79, 553.288,50.701, 548.455,55.541z M 141.974,278.053
	c0,75.485, 61.408,136.889, 136.9,136.889s 136.889-61.408, 136.889-136.889c0-75.485-61.408-136.889-136.889-136.889
	S 141.974,202.565, 141.974,278.053z" horiz-adv-x="662"  />
<glyph unicode="&#xe00c;" d="M 85.761,469.526l0-491.006 l 109.914,0 l0,198.013 l-49.505,0 l0,68.25 l 49.505,0.022l-0.079,40.212
	c0,55.672, 15.091,89.544, 80.669,89.544l 54.596,0 l0-68.25 l-34.111,0 c-25.54,0-26.767-9.531-26.767-27.338l-0.101-34.161l 61.376,0 l-7.235-68.236
	l-54.097-0.036l-0.044-198.013l 306.872,0 L 576.753,469.526 L 85.761,469.526 z" horiz-adv-x="662"  />
<glyph unicode="&#xe00d;" d="M 26.169,70.541l 305.204,305.246l 305.303-305.246L 26.169,70.541 z" horiz-adv-x="662"  />
<glyph unicode="&#xe00e;" d="M 27.059,177.814L 27.059,4.549L 330.92,267.215L 332.576,268.683L 635.535,6.813L 635.535,180.093L 331.743,442.743 z" horiz-adv-x="662"  />
<glyph unicode="&#xe00f;" d="M 293.822,470.73L 152.971,470.73L 366.518,223.7L 367.711,222.348L 154.797-23.966L 295.674-23.966L 509.209,223.031 
	z" horiz-adv-x="662"  />
<glyph unicode="&#xe010;" d="M 368.709,470.996L 509.553,470.996L 296.010,223.954L 294.81,222.608L 507.72-23.702L 366.849-23.702L 153.306,223.285 z" horiz-adv-x="662"  />
<glyph unicode="&#xe012;" d="M 296,256l-8,0 l0,96 c0,52.935-43.065,96-96,96l-64,0 c-52.935,0-96-43.065-96-96l0-96 l-8,0 c-13.2,0-24-10.8-24-24l0-240 
	c0-13.2, 10.8-24, 24-24l 272,0 c 13.2,0, 24,10.8, 24,24L 320,232 C 320,245.2, 309.2,256, 296,256z M 192,32l-64,0 l 13.92,69.6
	C 133.516,107.366, 128,117.037, 128,128c0,17.673, 14.327,32, 32,32c 17.673,0, 32-14.327, 32-32c0-10.963-5.516-20.634-13.92-26.4L 192,32
	z M 224,256L 96,256 l0,96 c0,17.645, 14.355,32, 32,32l 64,0 c 17.645,0, 32-14.355, 32-32L 224,256 z"  />
<glyph unicode="&#xe011;" d="M 384,448l-64,0 c-52.935,0-96-43.065-96-96l0-96 L 24,256 c-13.2,0-24-10.8-24-24l0-240 c0-13.2, 10.8-24, 24-24l 272,0 c 13.2,0, 24,10.8, 24,24L 320,232 
	c0,13.2-10.8,24-24,24l-8,0 l0,96 c0,17.645, 14.355,32, 32,32l 64,0 c 17.645,0, 32-14.355, 32-32l0-96 l 64,0 l0,96 C 480,404.935, 436.935,448, 384,448z
	 M 192,32l-64,0 l 13.92,69.6C 133.516,107.366, 128,117.037, 128,128c0,17.673, 14.327,32, 32,32c 17.673,0, 32-14.327, 32-32
	c0-10.963-5.516-20.634-13.92-26.4L 192,32z"  />
<glyph unicode="&#xe00b;" d="M 288.117,335.365L 409.473,376.081L 511.265,72.689L 389.909,31.973zM0,32l 128,0 L 128,384 L0,384 L0,32 z M 32,320l 64,0 l0-32 L 32,288 L 32,320 zM 160,32l 128,0 L 288,384 L 160,384 L 160,32 z M 192,320l 64,0 l0-32 l-64,0 L 192,320 z"  />
<glyph unicode="&#x20;" horiz-adv-x="256" />
</font></defs></svg>
